X:1
%
T:Kate of Aberdeen [2]
C:Ignatius Sancho
M:4/4
L:1/8
R:Reel/Country Dance Tune
B:Sancho - Second Collection of Minuets (1769, p. )
Z:AK/Fiddler's Companion
K:C
GF|EGce fdcB|c2d2G2 ge|afdc BcdB|c2G2C2 GF|
EGce fdcB|cdce G2 GF|EGcG BAGF|E2 D2 z2 GF|
EGcE FAdF|GBeB cBAG|A2f2 ecdB|c2G2C2 ef|
gege fdcB|c2d2G2 GF|EGce fdAd|c2B2z2 GF|
EGce fdcB|gedc BAz^G|A2a2 gefd|c2G2C2 GF|
EGcE FAdF|GBeB cBAG|Acfa gefd|[M:6/4]c2G2C6 A>G|
[M:4/4]F>A d>f g>e d>c|d2 e/d/c/B/ A2 a>f|b>g e>d c>d e>c|d2 A/G/F/E/ D2 A>G|
F>A d>f g>e d>c|d>e d>f A2 A>G|F>A d>A c>B A>G|F2 E2 z2 A>G|
F>A d>F G>B e>G|A>c f>c d>c B>A|B2g2 f>d e>c|d2 A/G/F/E/ D2 f>g|
a>f a>f g>e d>c|d2 e/d/c/B/ A2 A>G|F>A d>f g>e B>e|d2 c2 z2 A>G|
F>A d>f g>e d>c|a>f e>d cBz^A|B2 b2 afge|d2 A/G/F/E/ D2 A>G|
F>A d>F G>B e>G|A>c f>c d>c B>A|B>d g>b a>f g>e|d2 A/G/F/E/ D2||

